packages/heroicons/src/interstate/outline/users.svg

<svg width="16" height="17" viewBox="0 0 16 17" fill="none" xmlns="http://www.w3.org/2000/svg">
<path d="M10.2163 13.8127C10.8317 13.9919 11.4824 14.0879 12.1555 14.0879C13.248 14.0879 14.2814 13.835 15.2003 13.3845C15.2021 13.3421 15.203 13.2995 15.203 13.2568C15.203 11.5737 13.8386 10.2094 12.1555 10.2094C11.108 10.2094 10.1838 10.738 9.63532 11.543M10.2163 13.8127V13.8109C10.2163 12.9887 10.0056 12.2157 9.63532 11.543M10.2163 13.8127C10.2163 13.8391 10.2161 13.8654 10.2156 13.8916C8.84025 14.7197 7.22908 15.196 5.50665 15.196C3.78423 15.196 2.17306 14.7197 0.797677 13.8916C0.797225 13.8648 0.796997 13.8378 0.796997 13.8109C0.796997 11.2098 2.90558 9.1012 5.50665 9.1012C7.28555 9.1012 8.8341 10.0875 9.63532 11.543M8 4.39154C8 5.76858 6.88369 6.88489 5.50665 6.88489C4.12962 6.88489 3.01331 5.76858 3.01331 4.39154C3.01331 3.0145 4.12962 1.89819 5.50665 1.89819C6.88369 1.89819 8 3.0145 8 4.39154ZM14.0949 6.05377C14.0949 7.1248 13.2266 7.99304 12.1556 7.99304C11.0846 7.99304 10.2163 7.1248 10.2163 6.05377C10.2163 4.98274 11.0846 4.1145 12.1556 4.1145C13.2266 4.1145 14.0949 4.98274 14.0949 6.05377Z" stroke="black" stroke-width="1.5" stroke-linecap="round" stroke-linejoin="round"/>
</svg>

<svg viewBox="0 0 16 17">
  <path stroke="currentColor" stroke-linecap="round" stroke-linejoin="round" stroke-width="1.5" d="M10.216 13.854a6.93 6.93 0 0 0 1.94.275 6.898 6.898 0 0 0 3.044-.703 3.047 3.047 0 0 0-5.565-1.841m.581 2.27v-.003c0-.822-.21-1.595-.58-2.268m.58 2.27v.079a9.1 9.1 0 0 1-4.71 1.304 9.1 9.1 0 0 1-4.708-1.304l-.001-.08a4.71 4.71 0 0 1 8.838-2.269M8 4.433a2.493 2.493 0 1 1-4.987 0 2.493 2.493 0 0 1 4.987 0Zm6.095 1.662a1.94 1.94 0 1 1-3.879 0 1.94 1.94 0 0 1 3.879 0Z"/>
</svg>
